X: 1
T: Greta's Favourite
R: reel
M: 4/4
L: 1/8
K: Edor
eBdB AGEF|(3GFE FD EDB,D|eBdB ADFA|BdAd BeeA|
(3BdB eB defd|BAGF EDB,D|=CEGE DAFA|BdAB GEE2:|
Beef gfeg|fedA BAdc|Beef defa|(3bag af gefd|
(3ege de BdAB|~G2FG EDB,D|=CEGE DAFA|(3BdB AB GEE2:|

composer: Brendan Tonra
